X: 16816
T: Harry-O
R: jig
M: 6/8
K: Dmajor
FED EFG|ABA GFE|FED EFG|ABA G3|
FED EFG|Adf ecA|BAG FAF|1 GEC D2 E:|2 GEC DCD||
~E3 EDC|~E3 EFG|~E3 EDC|DFE DCD|
~E3 EDC|~E3 EFG|FAF GEC|1 DFE DCD:|2 DFE DFA||
dD cD BD|AD GD FD|EDC A,B,C|DFE DFA|
dD cD BD|AD GD FD|EDC A,B,C|1 DFE DFA:|2 DFE D3||

